<?xml version="1.0" encoding="UTF-8"?>
<map version="1.10" tiledversion="1.11.1" orientation="orthogonal" renderorder="right-down" width="30" height="20" tilewidth="128" tileheight="128" infinite="1" nextlayerid="3" nextobjectid="81">
 <tileset firstgid="1" source="spaceship_tiles.tsx"/>
 <tileset firstgid="7" source="objects.tsx"/>
 <layer id="1" name="Floor" width="30" height="20">
  <data encoding="csv">
   <chunk x="-16" y="-16" width="16" height="16">
0,0,0,0,0,0,0,0,0,0,0,0,0,0,0,0,
0,0,0,0,0,0,0,0,0,0,0,0,0,0,0,0,
0,0,0,0,0,0,0,0,0,0,0,0,0,0,0,0,
0,0,0,0,0,0,0,0,0,0,0,0,0,0,0,0,
0,0,0,0,0,0,0,0,0,0,0,0,0,0,0,0,
0,0,0,0,0,0,0,0,0,0,0,0,0,0,0,0,
0,0,0,0,0,0,0,0,0,0,0,0,0,0,0,0,
0,0,0,0,0,0,0,0,0,0,0,0,0,0,0,0,
0,0,0,0,0,0,0,0,0,0,0,0,0,0,0,0,
0,0,0,0,0,0,0,0,0,0,0,0,0,0,0,0,
0,0,0,0,0,0,0,0,0,0,6,6,6,6,6,6,
0,0,0,0,0,0,0,0,0,0,6,6,6,6,6,6,
0,0,0,0,0,0,0,0,0,0,6,6,6,6,6,6,
0,0,0,0,0,0,0,0,0,0,6,6,6,6,6,6,
0,0,0,0,0,0,0,0,0,0,6,6,6,6,6,6,
0,0,0,0,0,0,0,0,0,0,6,6,6,6,6,6
</chunk>
   <chunk x="0" y="-16" width="16" height="16">
0,0,0,0,0,0,0,0,0,0,0,0,0,0,0,0,
0,0,0,0,0,0,0,0,0,0,0,0,0,0,0,0,
0,0,0,0,0,0,0,0,0,0,0,0,0,0,0,0,
0,0,0,0,0,0,0,0,0,0,0,0,0,0,0,0,
0,0,0,0,0,0,0,0,0,0,0,0,0,0,0,0,
0,0,0,0,0,0,0,0,0,0,0,0,0,0,0,0,
0,0,0,0,0,0,0,0,0,0,0,0,0,0,0,0,
0,0,0,0,0,0,0,0,0,0,0,0,0,0,0,0,
0,0,0,0,0,0,0,0,0,0,0,0,0,0,0,0,
0,0,0,0,0,0,0,0,0,0,0,0,0,0,0,0,
6,6,6,6,6,6,0,0,0,0,0,0,0,0,0,0,
6,6,6,6,6,6,0,0,0,0,0,0,0,0,0,0,
6,6,6,6,6,6,0,0,0,0,0,0,0,0,0,0,
6,6,6,6,6,6,0,0,0,0,0,0,0,0,0,0,
6,6,6,6,6,6,0,0,0,0,0,0,0,0,0,0,
6,6,6,6,6,6,0,0,0,0,0,0,0,0,0,0
</chunk>
   <chunk x="-16" y="0" width="16" height="16">
0,0,0,0,0,0,0,0,0,0,6,6,6,6,6,6,
0,0,0,0,0,0,0,0,0,0,6,6,6,6,6,6,
0,0,0,0,0,0,0,0,0,0,6,6,6,6,6,6,
0,0,0,0,0,0,0,0,0,0,6,6,6,6,6,6,
0,0,0,0,0,0,0,0,0,0,6,6,6,6,6,6,
0,0,0,0,0,0,0,0,0,0,6,6,6,6,6,6,
0,0,0,0,0,0,0,0,0,0,0,0,0,0,6,6,
0,0,0,0,0,0,0,0,0,0,0,0,0,0,6,6,
0,0,0,0,0,0,0,0,0,0,0,0,0,0,6,6,
0,0,0,0,0,0,0,0,0,0,0,0,0,0,6,6,
0,0,0,0,0,0,0,0,0,0,0,0,0,0,6,6,
0,0,0,0,0,0,0,0,0,0,0,0,0,0,6,6,
0,0,0,0,0,0,0,0,0,0,0,0,0,0,6,6,
0,0,0,0,0,0,0,0,0,0,0,0,0,0,31,0,
0,0,0,0,0,0,0,0,0,0,0,0,0,0,0,0,
0,0,0,0,0,0,0,0,0,0,0,0,0,0,0,0
</chunk>
   <chunk x="0" y="0" width="16" height="16">
6,6,6,6,6,6,0,0,0,0,0,0,0,0,0,0,
6,6,6,6,6,6,0,0,0,0,0,0,0,0,0,0,
6,6,6,6,6,6,0,0,0,0,0,0,0,0,0,0,
6,6,6,6,6,6,0,0,0,0,0,0,0,0,0,0,
6,6,6,6,6,6,0,0,0,0,0,0,0,0,0,0,
6,6,6,6,6,6,0,0,0,0,0,0,0,0,0,0,
6,6,0,0,0,0,0,0,0,0,0,0,0,0,0,0,
6,6,0,0,0,0,0,0,0,0,0,0,0,0,0,0,
6,6,0,0,0,0,0,0,0,0,0,0,0,0,0,0,
6,6,0,0,0,0,0,0,0,0,0,0,0,0,0,0,
6,6,0,0,0,0,0,0,0,0,0,0,0,0,0,0,
6,6,0,0,0,0,0,0,0,0,0,0,0,0,0,0,
6,6,0,0,0,0,0,0,0,0,0,0,0,0,0,0,
0,0,0,0,0,0,0,0,0,0,0,0,0,0,0,0,
0,0,0,0,0,0,0,0,0,0,0,0,0,0,0,0,
0,0,0,0,0,0,0,0,0,0,0,0,0,0,0,0
</chunk>
  </data>
 </layer>
 <objectgroup id="2" name="Object Layer 1">
  <object id="41" gid="51" x="-787.121" y="-587.394" width="1543" height="188.606"/>
  <object id="55" gid="54" x="-283.333" y="1664.79" width="58.303" height="904.58"/>
  <object id="56" gid="54" x="238" y="1664.38" width="58.303" height="907.729"/>
  <object id="57" gid="54" x="-1779.72" y="2736.64" width="90.5894" height="1071.97"/>
  <object id="58" gid="54" x="-1763.33" y="2685.86" width="80.2192" height="2752.05" rotation="90"/>
  <object id="59" gid="54" x="-1770.26" y="1637.16" width="80.2192" height="1587.08" rotation="90"/>
  <object id="60" gid="54" x="968.562" y="2770.02" width="80.2192" height="1113.31"/>
  <object id="65" gid="57" x="752.727" y="551.273" width="2271.97" height="1340.67"/>
  <object id="66" gid="54" x="-814" y="773.408" width="58.303" height="647.123"/>
  <object id="67" gid="54" x="-802.885" y="715.305" width="58.303" height="729.426" rotation="90"/>
  <object id="68" gid="54" x="90.606" y="714.317" width="58.303" height="675.851" rotation="90"/>
  <object id="69" gid="54" x="710.242" y="764.317" width="58.303" height="647.123"/>
  <object id="70" gid="54" x="710.242" y="-120.531" width="58.303" height="647.123"/>
  <object id="71" gid="54" x="-820.061" y="-205.38" width="58.303" height="565.305"/>
  <object id="72" gid="49" x="-363.879" y="289.424" width="706" height="588"/>
  <object id="74" gid="58" x="-1768.96" y="2758.54" width="2831.56" height="1171.98"/>
  <object id="75" gid="54" x="143.89" y="1639.13" width="80.2192" height="897.75" rotation="90"/>
  <object id="76" gid="54" x="-415.867" y="1561.01" width="143.856" height="162.838" rotation="90"/>
  <object id="77" gid="61" x="-2550.94" y="820.606" width="1778.64" height="1343.24"/>
  <object id="78" gid="54" x="-2592.79" y="814.075" width="58.303" height="1708.21" rotation="90"/>
  <object id="79" gid="54" x="-2547.33" y="-576.834" width="58.303" height="1683.97" rotation="90"/>
  <object id="80" gid="54" x="-2602.87" y="857.954" width="90.5894" height="1420.45"/>
 </objectgroup>
</map>
