<?xml version="1.0" encoding="UTF-8"?>
<map version="1.10" tiledversion="1.11.2" orientation="orthogonal" renderorder="right-down" width="200" height="200" tilewidth="128" tileheight="128" infinite="0" nextlayerid="6" nextobjectid="417">
 <tileset firstgid="1" source="objects.tsx"/>
 <tileset firstgid="49" source="spaceship_tiles.tsx"/>
 <objectgroup id="3" name="Layout">
  <object id="224" gid="48" x="1373.37" y="3439.38" width="90.5894" height="1071.97"/>
  <object id="225" gid="48" x="1397.76" y="3388.6" width="80.2192" height="2752.05" rotation="90"/>
  <object id="226" gid="48" x="1382.83" y="2339.9" width="80.2192" height="1587.08" rotation="90"/>
  <object id="227" gid="48" x="4121.65" y="3472.76" width="80.2192" height="1113.31"/>
  <object id="237" gid="48" x="3296.98" y="2341.87" width="80.2192" height="897.75" rotation="90"/>
  <object id="238" gid="48" x="2737.22" y="2263.75" width="143.856" height="162.838" rotation="90"/>
  <object id="240" gid="48" x="260.055" y="2034.64" width="58.303" height="1708.21" rotation="90"/>
  <object id="241" gid="48" x="213.757" y="661.908" width="58.303" height="1683.97" rotation="90"/>
  <object id="242" gid="48" x="197.611" y="2112.7" width="90.5894" height="1420.45"/>
  <object id="258" x="420" y="1020" width="4" height="10"/>
  <object id="259" x="356" y="978" width="6"/>
  <object id="260" x="496" y="1100" width="20" height="16"/>
  <object id="261" x="1438" y="1550" width="8" height="10"/>
  <object id="320" gid="60" x="4000" y="1855" width="2272" height="1341"/>
  <object id="322" gid="62" x="287" y="2036" width="1779" height="1343"/>
  <object id="323" gid="59" x="1372" y="3462" width="2832" height="1171"/>
  <object id="416" gid="67" x="2002" y="2446" width="2093" height="2080"/>
 </objectgroup>
 <objectgroup id="5" name="collider">
  <object id="326" x="215.152" y="657.576" width="75.7576" height="1466.67"/>
  <object id="327" x="215.152" y="2031.39" width="1754.55" height="48.4848"/>
  <object id="328" x="1906.06" y="1333.33" width="63.6364" height="754.545"/>
  <object id="329" x="1903.03" y="1333.33" width="187.879" height="69.697"/>
  <object id="330" x="2027.27" y="1403.03" width="63.6364" height="684.848"/>
  <object id="331" x="2027.27" y="2024.24" width="969.697" height="63.6364"/>
  <object id="332" x="1927.27" y="681.818" width="154.545" height="324.242"/>
  <object id="333" x="2018.18" y="357.576" width="63.6364" height="648.485"/>
  <object id="334" x="2018.18" y="357.576" width="2081.82" height="215.152"/>
  <object id="335" x="4036.36" y="360.606" width="48.4848" height="754.545"/>
  <object id="336" x="4084.85" y="890.909" width="921.212" height="224.242"/>
  <object id="337" x="4966.67" y="560.606" width="39.3939" height="330.303"/>
  <object id="338" x="4966.67" y="560.606" width="615.152" height="184.848"/>
  <object id="339" x="5581" y="560" width="40" height="186"/>
  <object id="340" x="5616" y="562" width="44" height="257"/>
  <object id="341" x="5660" y="609" width="65" height="267"/>
  <object id="342" x="5725" y="661" width="75" height="285"/>
  <object id="343" x="5801" y="944" width="306" height="61"/>
  <object id="344" x="5853" y="1004" width="274" height="81"/>
  <object id="345" x="5859" y="1260" width="265" height="116"/>
  <object id="346" x="5935" y="1066" width="196" height="188"/>
  <object id="347" x="5573" y="1650" width="138" height="33"/>
  <object id="348" x="5624" y="1602" width="175" height="39"/>
  <object id="349" x="5708" y="1544" width="195" height="58"/>
  <object id="350" x="5805" y="1505" width="188" height="42"/>
  <object id="351" x="5858" y="1474" width="130" height="40"/>
  <object id="352" x="5891" y="1460" width="111" height="17"/>
  <object id="353" x="5941" y="1431" width="110" height="31"/>
  <object id="354" x="5966" y="1360" width="113" height="76"/>
  <object id="355" x="4958" y="1668" width="622" height="26"/>
  <object id="356" x="4958" y="1342" width="44" height="326"/>
  <object id="357" x="4034" y="1342" width="968" height="28"/>
  <object id="358" x="4034" y="1346" width="62" height="742"/>
  <object id="359" x="3212" y="2028" width="822" height="60"/>
  <object id="360" x="566" y="664" width="1354" height="294"/>
  <object id="361" x="290" y="664" width="282" height="270"/>
  <object id="362" x="300" y="922" width="98" height="90"/>
  <object id="363" x="564" y="950" width="1016" height="130"/>
  <object id="364" x="710" y="1448" width="772" height="424"/>
  <object id="365" x="954" y="1832" width="300" height="78"/>
  <object id="366" x="2792" y="2036" width="100" height="620"/>
  <object id="367" x="1384" y="2376" width="1574" height="282"/>
  <object id="368" x="1378" y="2568" width="180" height="304"/>
  <object id="369" x="1840" y="2746" width="902" height="232"/>
  <object id="370" x="1444" y="3124" width="372" height="120"/>
  <object id="371" x="1356" y="3142" width="202" height="332"/>
  <object id="372" x="1356" y="2864" width="96" height="278"/>
  <object id="373" x="1528" y="3394" width="2662" height="70"/>
  <object id="374" x="1878" y="3232" width="1056" height="160"/>
  <object id="375" x="2000" y="3164" width="768" height="82"/>
  <object id="376" x="1940" y="2648" width="856" height="148"/>
  <object id="377" x="2742" y="2746" width="156" height="166"/>
  <object id="378" x="1908" y="3166" width="106" height="58"/>
  <object id="379" x="3624" y="3250" width="566" height="186"/>
  <object id="380" x="3736" y="3170" width="458" height="98"/>
  <object id="381" x="3894" y="2892" width="14" height="292"/>
  <object id="382" x="3896" y="3030" width="288" height="152"/>
  <object id="383" x="3296" y="2410" width="386" height="460"/>
  <object id="384" x="3672" y="2764" width="14" height="308"/>
  <object id="385" x="3374" y="2084" width="828" height="744"/>
  <object id="387" x="4134" y="2778" width="44" height="278"/>
  <object id="389" x="2680" y="1128" width="800" height="200"/>
  <object id="390" x="2728" y="1080" width="706" height="58"/>
  <object id="391" x="2802" y="1022" width="528" height="54"/>
  <object id="392" x="2724" y="1324" width="694" height="68"/>
  <object id="396" x="2894" y="978" width="128" height="44"/>
  <object id="397" x="3146" y="978" width="120" height="56"/>
  <object id="398" x="2774" y="1388" width="242" height="56"/>
  <object id="399" x="2820" y="1438" width="184" height="24"/>
  <object id="400" x="2862" y="1468" width="140" height="20"/>
  <object id="401" x="2920" y="1480" width="72" height="26"/>
  <object id="402" x="3146" y="1388" width="244" height="34"/>
  <object id="403" x="3154" y="1418" width="198" height="40"/>
  <object id="404" x="3168" y="1458" width="46" height="42"/>
  <object id="405" x="3214" y="1460" width="80" height="22"/>
  <object id="406" x="5638" y="1088" width="118" height="54"/>
  <object id="407" x="5674" y="1044" width="50" height="170"/>
  <object id="408" x="5642" y="1062" width="116" height="18"/>
  <object id="409" x="5722" y="1032" width="24" height="30"/>
  <object id="410" x="5648" y="1142" width="26" height="42"/>
  <object id="411" x="5718" y="1136" width="22" height="40"/>
  <object id="412" x="5568" y="1434" width="176" height="186"/>
  <object id="413" x="5522" y="822" width="146" height="170"/>
 </objectgroup>
</map>
